docs/assets/images/components/stepper.svg

<?xml version="1.0" encoding="UTF-8"?>
<svg width="60px" height="42px" viewBox="0 0 60 42" version="1.1" xmlns="http://www.w3.org/2000/svg" xmlns:xlink="http://www.w3.org/1999/xlink">
    <!-- Generator: sketchtool 50.2 (55047) - http://www.bohemiancoding.com/sketch -->
    <title>50E68770-2D65-4D1C-95F4-B392C58FF965</title>
    <desc>Created with sketchtool.</desc>
    <defs></defs>
    <g id="Page-1" stroke="none" stroke-width="1" fill="none" fill-rule="evenodd">
        <g id="icon-source" transform="translate(-500.000000, -1063.000000)">
            <g id="Group" transform="translate(87.000000, 66.000000)">
                <g id="Group-6-Copy-3" transform="translate(0.000000, 587.000000)">
                    <g id="Group-3-Copy-2" transform="translate(188.000000, 197.000000)">
                        <g id="stepper" transform="translate(223.000000, 197.000000)">
                            <rect id="Background" x="0" y="0" width="64" height="64"></rect>
                            <circle id="Oval" fill="#6DA3F2" cx="15" cy="29" r="12"></circle>
                            <circle id="Oval" fill="#97BDFF" cx="16" cy="28" r="10"></circle>
                            <path d="M15,40 C21.0751322,40 26,35.0751322 26,29 C26,22.9248678 21.0751322,18 15,18 C8.92486775,18 4,22.9248678 4,29 C4,35.0751322 8.92486775,40 15,40 Z M15,42 C7.82029825,42 2,36.1797017 2,29 C2,21.8202983 7.82029825,16 15,16 C22.1797017,16 28,21.8202983 28,29 C28,36.1797017 22.1797017,42 15,42 Z" id="Oval" fill="#457AE6" fill-rule="nonzero"></path>
                            <path d="M40,34 C37.2385763,34 35,31.7614237 35,29 C35,26.2385763 37.2385763,24 40,24 C42.7614237,24 45,26.2385763 45,29 C45,31.7614237 42.7614237,34 40,34 Z" id="Oval-Copy" fill="#457AE6" fill-rule="nonzero"></path>
                            <path d="M57,34 C54.2385763,34 52,31.7614237 52,29 C52,26.2385763 54.2385763,24 57,24 C59.7614237,24 62,26.2385763 62,29 C62,31.7614237 59.7614237,34 57,34 Z" id="Oval-Copy-2" fill="#457AE6" fill-rule="nonzero"></path>
                            <path d="M40,32 C41.6568542,32 43,30.6568542 43,29 C43,27.3431458 41.6568542,26 40,26 C38.3431458,26 37,27.3431458 37,29 C37,30.6568542 38.3431458,32 40,32 Z" id="Path" fill="#6DA3F2"></path>
                            <path d="M57,32 C58.6568542,32 60,30.6568542 60,29 C60,27.3431458 58.6568542,26 57,26 C55.3431458,26 54,27.3431458 54,29 C54,30.6568542 55.3431458,32 57,32 Z" id="Path" fill="#6DA3F2"></path>
                            <path d="M40,34 C37.2385763,34 35,31.7614237 35,29 C35,26.2385763 37.2385763,24 40,24 C42.7614237,24 45,26.2385763 45,29 C45,31.7614237 42.7614237,34 40,34 Z M40,32 C41.6568542,32 43,30.6568542 43,29 C43,27.3431458 41.6568542,26 40,26 C38.3431458,26 37,27.3431458 37,29 C37,30.6568542 38.3431458,32 40,32 Z" id="Oval-Copy" fill="#457AE6" fill-rule="nonzero"></path>
                            <path d="M57,34 C54.2385763,34 52,31.7614237 52,29 C52,26.2385763 54.2385763,24 57,24 C59.7614237,24 62,26.2385763 62,29 C62,31.7614237 59.7614237,34 57,34 Z M57,32 C58.6568542,32 60,30.6568542 60,29 C60,27.3431458 58.6568542,26 57,26 C55.3431458,26 54,27.3431458 54,29 C54,30.6568542 55.3431458,32 57,32 Z" id="Oval-Copy-2" fill="#457AE6" fill-rule="nonzero"></path>
                            <path d="M17.1523293,25.4696106 C17.4453289,25.0014549 18.0623671,24.8594629 18.5305227,25.1524625 C18.9986783,25.4454622 19.1406703,26.0625004 18.8476707,26.530656 L14.7167331,33.13108 L10.2928932,28.70724 C9.90236893,28.3167158 9.90236893,27.6835508 10.2928932,27.2930265 C10.6834175,26.9025022 11.3165825,26.9025022 11.7071068,27.2930265 L14.3543347,29.9402544 L17.1523293,25.4696106 Z" id="Path-5" fill="#FFFFFF" fill-rule="nonzero"></path>
                            <ellipse id="Oval-2-Copy" fill="#CADEFF" cx="33" cy="55.5" rx="20" ry="2.5"></ellipse>
                            <path d="M35.0934187,30 L58.9999913,30 C58.9998645,28.00031 58.9999913,28 58.9994684,28 L35.0934187,28 L35.0934187,30 Z M58.9999913,28 L58.9999913,30 L27,30 L27,28 L58.9999913,28 Z" id="Path-2" fill="#457AE6" fill-rule="nonzero"></path>
                            <path d="M47.7937888,30 L58.9999913,30 C58.9999319,28.00031 58.9999913,28 58.9997462,28 L47.7937888,28 L47.7937888,30 Z M58.9999913,28 L58.9999913,30 L44,30 L44,28 L58.9999913,28 Z" id="Path-2-Copy" fill="#457AE6" fill-rule="nonzero"></path>
                            <path d="M37.3113075,30 L53,30 C52.9999168,28.00031 53,28 52.9996568,28 L37.3113075,28 L37.3113075,30 Z M53,28 L53,30 L32,30 L32,28 L53,28 Z" id="Path-2-Copy-2" fill="#457AE6" fill-rule="nonzero" transform="translate(42.500000, 29.000000) rotate(-180.000000) translate(-42.500000, -29.000000) "></path>
                        </g>
                    </g>
                </g>
            </g>
        </g>
    </g>
</svg>

<svg width="60" height="42" xmlns="http://www.w3.org/2000/svg"><g transform="translate(-2 -16)" fill="none" fill-rule="evenodd"><path d="M0 0h64v64H0z"/><circle fill="#6DA3F2" cx="15" cy="29" r="12"/><circle fill="#97BDFF" cx="16" cy="28" r="10"/><path d="M15 40c6.075 0 11-4.925 11-11s-4.925-11-11-11S4 22.925 4 29s4.925 11 11 11zm0 2C7.82 42 2 36.18 2 29s5.82-13 13-13 13 5.82 13 13-5.82 13-13 13zM40 34a5 5 0 1 1 0-10 5 5 0 0 1 0 10zM57 34a5 5 0 1 1 0-10 5 5 0 0 1 0 10z" fill="#457AE6" fill-rule="nonzero"/><path d="M40 32a3 3 0 1 0 0-6 3 3 0 0 0 0 6zM57 32a3 3 0 1 0 0-6 3 3 0 0 0 0 6z" fill="#6DA3F2"/><path d="M40 34a5 5 0 1 1 0-10 5 5 0 0 1 0 10zm0-2a3 3 0 1 0 0-6 3 3 0 0 0 0 6zM57 34a5 5 0 1 1 0-10 5 5 0 0 1 0 10zm0-2a3 3 0 1 0 0-6 3 3 0 0 0 0 6z" fill="#457AE6" fill-rule="nonzero"/><path d="M17.152 25.47a1 1 0 1 1 1.696 1.06l-4.131 6.601-4.424-4.424a1 1 0 1 1 1.414-1.414l2.647 2.647 2.798-4.47z" fill="#FFF" fill-rule="nonzero"/><ellipse fill="#CADEFF" cx="33" cy="55.5" rx="20" ry="2.5"/><path d="M35.093 30H59v-2H35.092v2zM59 28v2H27v-2h32z" fill="#457AE6" fill-rule="nonzero"/><path d="M47.794 30H59v-2H47.794v2zM59 28v2H44v-2h15z" fill="#457AE6" fill-rule="nonzero"/><path d="M47.689 28H32v2H47.69v-2zM32 30v-2h21v2H32z" fill="#457AE6" fill-rule="nonzero"/></g></svg>
